X: 55
M:6/8
L:1/8
K:A
|: d2 e fed| d2 e fed| d2 e f2 g|a3 a g/2f/2|e c2 e c2|e c2 e3|ABc B2 A| A3 A3:|

